!!!SOCIAL_FUNCTION:	songs of social dances
!!!PDT:	1958
!!!OTL: No_18_Social_Dance_Song_(f).krn
!!!REG: Northern California
!!!LANG: Non-Tone
!!!LING_GROUP: Penutian
**kern
*staff1
=1-
*clefF4
*k[b-e-]
*M2/4
8F\L
16B-\L
16G\JJ
(8F\L
16.D\L)
32F\JJk
=2
16.F\LL
32D\K
16.D\
32E-\JJk
8D\
8r
=3!|:
8D\L
16.B-\L
32G\JJk
(8F\L
16.D\L)
32F\JJk
=4
16.F\LL
32D\K
16.D\
32E-\JJk
8D\
8r
=5
8B-\L
16B-\L
16B-\JJ
8.B-\L
16G\Jk
=6
8F\L
16.B-\L
32G\JJk
(8F\L
16.D\L)
32D\JJk
=7
16.F\LL
32F\K
16.D\
32E-\JJk
8D\
8r
=8||
8D\L
16.B-\L
32G\JJk
(8F\L
16.D\L)
32F\JJk
=9
16.F\LL
32D\K
16.D\
32E-\JJk
8D\
8r
==:|!
*-
